site/scripts/dark-to-light.cube
TITLE "dark-plus to light-plus"
LUT_3D_SIZE 9
0.936128 0.943035 0.944476
0.947388 0.949545 0.949800
0.925442 0.918219 0.916919
0.896707 0.860452 0.855333
0.874661 0.797657 0.787952
0.859640 0.731673 0.716889
0.848658 0.671822 0.652181
0.838797 0.625305 0.602018
0.827420 0.596611 0.571519
0.940774 0.949603 0.948633
0.957522 0.960700 0.959250
0.925901 0.918845 0.913088
0.900752 0.848761 0.833330
0.881082 0.777360 0.755832
0.870891 0.699211 0.671282
0.862413 0.629784 0.595893
0.854076 0.579096 0.541329
0.842025 0.551518 0.512032
0.897702 0.923673 0.913185
0.903906 0.925473 0.910181
0.886497 0.889357 0.865773
0.888410 0.844703 0.801660
0.872745 0.769389 0.724983
0.872726 0.692165 0.638067
0.868648 0.613879 0.557149
0.863279 0.558460 0.499938
0.851970 0.526886 0.467610
0.820762 0.884349 0.848997
0.813691 0.879681 0.830395
0.815171 0.852335 0.801587
0.831109 0.820412 0.758557
0.856149 0.778122 0.678681
0.878860 0.738529 0.611141
0.867951 0.656239 0.543781
0.865393 0.597237 0.486632
0.854385 0.553885 0.454195
0.731259 0.848006 0.772001
0.709833 0.841935 0.740387
0.721007 0.815681 0.726821
0.747469 0.781544 0.696285
0.819989 0.768839 0.636908
0.865433 0.752685 0.580537
0.888919 0.718026 0.491580
0.890249 0.683243 0.452784
0.863848 0.624133 0.436186
0.645971 0.817397 0.697622
0.612299 0.810917 0.655951
0.632170 0.786549 0.653974
0.673637 0.751347 0.645286
0.734456 0.730077 0.611648
0.812747 0.723720 0.544608
0.900105 0.739807 0.449570
0.906425 0.721200 0.415076
0.894347 0.681623 0.364961
0.585263 0.791355 0.645150
0.547907 0.784790 0.600813
0.570860 0.763092 0.604286
0.621494 0.729392 0.612689
0.674572 0.702955 0.592807
0.748546 0.694910 0.541402
0.831042 0.705303 0.468843
0.878120 0.702902 0.387507
0.918184 0.702094 0.296941
0.559745 0.767694 0.624576
0.525947 0.760274 0.583576
0.546555 0.740985 0.586293
0.594326 0.711488 0.598647
0.638961 0.685098 0.586747
0.690091 0.670325 0.551445
0.750487 0.668224 0.495567
0.816483 0.674472 0.413093
0.866354 0.682347 0.341792
0.566506 0.745485 0.633087
0.546413 0.736526 0.604289
0.557719 0.718979 0.599052
0.587513 0.694584 0.600231
0.618422 0.671049 0.588343
0.651715 0.653963 0.561746
0.691460 0.645426 0.522121
0.737050 0.645127 0.471152
0.771691 0.646715 0.429871
0.942182 0.949428 0.953203
0.958908 0.960936 0.962500
0.928871 0.920066 0.921592
0.900130 0.845753 0.844220
0.879086 0.770999 0.764630
0.868124 0.691455 0.678803
0.858821 0.620666 0.602145
0.849881 0.569824 0.547216
0.837355 0.542699 0.518461
0.951903 0.959531 0.961494
0.988235 0.988235 0.988235
0.930347 0.914225 0.911675
0.946090 0.803107 0.789090
0.908341 0.697888 0.675863
0.905512 0.621015 0.593440
0.891302 0.522615 0.486539
0.881781 0.480487 0.441481
0.865412 0.452561 0.411607
0.888272 0.924350 0.914567
0.839021 0.933902 0.856447
0.854806 0.870033 0.833410
0.969046 0.896061 0.785174
0.914262 0.668808 0.630548
0.924678 0.614532 0.573530
0.911402 0.451155 0.400331
0.904872 0.431075 0.379486
0.887353 0.370536 0.313075
0.787022 0.881337 0.831345
0.745429 0.888012 0.777364
0.742116 0.827176 0.738352
0.838371 0.826670 0.735743
0.925654 0.805870 0.614256
0.949732 0.793209 0.578703
0.902706 0.571283 0.471282
0.902532 0.497554 0.404532
0.891553 0.417560 0.335172
0.664181 0.847788 0.720460
0.587995 0.868292 0.635501
0.623928 0.805964 0.650875
0.644431 0.740430 0.609069
0.897367 0.806789 0.587128
0.940898 0.810675 0.564029
0.961828 0.765892 0.408318
0.943289 0.717434 0.399959
0.890094 0.579701 0.379618
0.541691 0.817468 0.609720
0.418869 0.826434 0.485941
0.490571 0.790521 0.540854
0.566972 0.712851 0.559921
0.675029 0.699032 0.554026
0.834890 0.723159 0.489995
0.986223 0.793542 0.383180
0.967652 0.769539 0.375606
0.957848 0.710942 0.249587
0.468452 0.791045 0.545607
0.351054 0.793400 0.428484
0.414561 0.768444 0.477767
0.532144 0.703326 0.547030
0.607186 0.667617 0.543366
0.730481 0.674007 0.499900
0.873276 0.720709 0.419937
0.940962 0.722641 0.284953
0.994200 0.736256 0.182912
0.448065 0.766094 0.531021
0.334462 0.768665 0.417066
0.397249 0.745847 0.465847
0.521337 0.693103 0.549395
0.585929 0.655118 0.552960
0.652071 0.640349 0.520909
0.737257 0.648131 0.459275
0.856278 0.679510 0.334185
0.940880 0.710321 0.238500
0.499891 0.739798 0.583771
0.455148 0.734607 0.532899
0.479967 0.712347 0.543238
0.535032 0.676094 0.568598
0.575245 0.644443 0.563507
0.613028 0.624377 0.536727
0.661815 0.617981 0.493858
0.728510 0.627423 0.431663
0.784023 0.640694 0.379352
0.904374 0.921625 0.935473
0.916988 0.926066 0.936627
0.895750 0.888844 0.900256
0.875336 0.824796 0.834768
0.862680 0.746778 0.750155
0.859705 0.663507 0.658475
0.856003 0.583395 0.570186
0.850441 0.530085 0.511729
0.838742 0.501058 0.480607
0.885471 0.917538 0.940001
0.906870 0.930227 0.952079
0.879390 0.868802 0.885847
0.903594 0.793651 0.798876
0.908110 0.641064 0.623119
0.914738 0.587012 0.563503
0.905805 0.428476 0.388367
0.897266 0.409555 0.370150
0.880574 0.351330 0.307228
0.818980 0.883661 0.917465
0.809572 0.874316 0.925412
0.776578 0.798600 0.806083
0.847870 0.778658 0.782750
0.938290 0.604340 0.579110
0.965147 0.632928 0.612408
0.920027 0.305482 0.246691
0.929608 0.317153 0.265669
0.904471 0.145522 0.075328
0.753491 0.852550 0.844494
0.729194 0.847808 0.807010
0.517968 0.745849 0.522533
0.705487 0.744465 0.687350
0.800619 0.579460 0.560462
0.867469 0.623333 0.544111
0.958741 0.494725 0.459613
0.936804 0.387820 0.337482
0.954325 0.292023 0.242562
0.638165 0.827148 0.723248
0.567291 0.855745 0.623514
0.498066 0.732538 0.537931
0.274060 0.626557 0.275612
0.663242 0.669036 0.541530
0.798468 0.633754 0.505547
0.886622 0.653122 0.418646
0.899298 0.599771 0.389379
0.905151 0.451582 0.343172
0.493606 0.806556 0.579176
0.363007 0.831192 0.433752
0.415310 0.780318 0.482062
0.273056 0.596240 0.287243
0.428244 0.601594 0.390276
0.702100 0.624310 0.476229
0.942889 0.754424 0.389946
0.921544 0.712568 0.370937
0.928205 0.671049 0.263678
0.393144 0.781513 0.486338
0.167864 0.784871 0.261369
0.272318 0.768221 0.358361
0.422617 0.649426 0.462985
0.488645 0.608710 0.472701
0.621678 0.604699 0.479127
0.773134 0.645299 0.420531
0.890402 0.681871 0.297582
0.988988 0.732578 0.187100
0.372065 0.759257 0.471054
0.201410 0.777410 0.295540
0.281012 0.751776 0.370461
0.463230 0.661789 0.519631
0.520897 0.611437 0.523670
0.575839 0.588095 0.495952
0.652504 0.588974 0.446518
0.786193 0.632272 0.345549
0.905103 0.686619 0.252292
0.458604 0.727067 0.561814
0.397759 0.725820 0.494487
0.429339 0.696829 0.515615
0.491929 0.647183 0.552046
0.526107 0.607527 0.543276
0.555007 0.581839 0.513064
0.596175 0.571311 0.473297
0.661486 0.581172 0.422644
0.725643 0.600622 0.379610
0.839879 0.875673 0.910523
0.846515 0.871798 0.906029
0.839572 0.843733 0.876866
0.827199 0.796432 0.827321
0.819420 0.731664 0.757083
0.820966 0.657721 0.673658
0.826021 0.583630 0.588195
0.827398 0.529057 0.525239
0.821010 0.496581 0.488222
0.797466 0.862885 0.919624
0.802945 0.860473 0.926517
0.812255 0.820550 0.879112
0.809026 0.769493 0.817568
0.817388 0.684408 0.719059
0.843541 0.597587 0.607553
0.869890 0.484240 0.468900
0.874276 0.423745 0.398936
0.867774 0.361656 0.329041
0.708877 0.824788 0.914843
0.756738 0.875665 0.994914
0.753443 0.779548 0.868217
0.740110 0.725189 0.789476
0.782292 0.601224 0.715491
0.835899 0.556519 0.571837
0.924606 0.445961 0.417365
0.916400 0.328086 0.284540
0.918541 0.217960 0.161336
0.657203 0.791682 0.878156
0.691456 0.796857 0.886942
0.687412 0.738594 0.823407
0.531926 0.566692 0.584156
0.674211 0.562297 0.624486
0.722764 0.405250 0.413638
0.868403 0.461118 0.447191
0.912841 0.372900 0.337021
0.998854 0.371131 0.339496
0.622328 0.770751 0.793845
0.590346 0.746854 0.774720
0.554696 0.722753 0.753584
0.487000 0.694257 0.606024
0.728926 0.679209 0.571079
0.717262 0.318356 0.316909
0.700133 0.363204 0.348022
0.745516 0.339868 0.302749
0.894493 0.385373 0.339839
0.540078 0.753603 0.687451
0.487675 0.744599 0.627827
0.464719 0.677409 0.603585
0.127651 0.535506 0.148643
0.382809 0.566880 0.387047
0.532459 0.514258 0.454101
0.626981 0.383355 0.323296
0.672816 0.325572 0.260945
0.749729 0.468308 0.336890
0.456647 0.739618 0.592180
0.346126 0.744119 0.468210
0.395384 0.685086 0.526677
0.390999 0.598544 0.476382
0.422937 0.563127 0.465903
0.495521 0.530763 0.447413
0.567307 0.492477 0.396429
0.644115 0.484903 0.354001
0.750259 0.556029 0.321312
0.428712 0.722347 0.561196
0.330224 0.730059 0.450606
0.379355 0.683253 0.502796
0.441701 0.608896 0.541373
0.461237 0.561524 0.508268
0.485917 0.527787 0.462521
0.521748 0.506223 0.419805
0.587631 0.509652 0.379835
0.677256 0.545581 0.347699
0.467185 0.695490 0.601154
0.426445 0.684567 0.555524
0.436298 0.650185 0.558471
0.461069 0.602690 0.558958
0.473562 0.562043 0.527599
0.483042 0.530737 0.483505
0.502666 0.510206 0.440944
0.543284 0.505341 0.406504
0.595200 0.518114 0.390369
0.775309 0.829211 0.886756
0.781770 0.822644 0.880603
0.781742 0.799532 0.855640
0.774753 0.759219 0.814123
0.768023 0.706293 0.759942
0.768213 0.648891 0.695647
0.774879 0.593014 0.628073
0.781301 0.547291 0.570514
0.781735 0.518041 0.532593
0.709847 0.806949 0.895452
0.729593 0.807385 0.898652
0.744074 0.779153 0.863304
0.742540 0.722708 0.807208
0.742296 0.654986 0.747559
0.752223 0.595817 0.667115
0.777943 0.533561 0.576322
0.799500 0.479856 0.498443
0.808511 0.441723 0.445066
0.547263 0.748441 0.894063
0.625847 0.787911 0.938589
0.658539 0.715885 0.889593
0.698907 0.630585 0.804583
0.738065 0.550131 0.795548
0.710883 0.521226 0.659412
0.760073 0.476205 0.549602
0.808349 0.425328 0.444497
0.845558 0.377389 0.368440
0.500777 0.718828 0.877545
0.577965 0.732013 0.923640
0.476874 0.477003 0.976634
0.559578 0.576192 0.708915
0.647063 0.537520 0.720034
0.665594 0.395639 0.661978
0.690185 0.401098 0.532976
0.753390 0.386577 0.421138
0.854191 0.372824 0.364174
0.503708 0.694004 0.828757
0.522100 0.683171 0.826217
0.503239 0.655497 0.806087
0.502017 0.555936 0.697031
0.461325 0.482009 0.488619
0.468001 0.391751 0.475891
0.611714 0.255299 0.293152
0.640273 0.188961 0.200607
0.722755 0.358335 0.359576
0.505869 0.683425 0.761772
0.452290 0.645794 0.733449
0.363550 0.619053 0.696933
0.427008 0.569893 0.624822
0.309016 0.550173 0.476187
0.375111 0.562657 0.449954
0.577022 0.352580 0.280467
0.612576 0.174846 0.167956
0.613084 0.360492 0.339630
0.478633 0.671876 0.700630
0.427419 0.637880 0.677065
0.387787 0.605511 0.666565
0.395113 0.562811 0.591339
0.367778 0.545084 0.488038
0.490760 0.514542 0.394377
0.523191 0.480093 0.357778
0.493405 0.396023 0.325168
0.539992 0.412839 0.341769
0.463253 0.662108 0.662605
0.418447 0.633001 0.633455
0.388108 0.589893 0.617685
0.391510 0.550003 0.575975
0.400802 0.511594 0.496557
0.390351 0.480031 0.414848
0.383426 0.453309 0.357637
0.444675 0.414345 0.294843
0.494090 0.423478 0.316709
0.470045 0.650667 0.652219
0.435935 0.624339 0.625720
0.415547 0.588483 0.605457
0.413974 0.550993 0.571729
0.413961 0.513560 0.512957
0.398932 0.480554 0.443737
0.402231 0.451155 0.378254
0.441466 0.427395 0.327196
0.480377 0.434550 0.339802
0.716016 0.784667 0.863050
0.722619 0.775790 0.855360
0.725877 0.754403 0.833264
0.723403 0.719429 0.798051
0.719661 0.675751 0.754731
0.719318 0.630512 0.706620
0.723715 0.589549 0.656956
0.730007 0.556843 0.611602
0.733884 0.535326 0.577857
0.638598 0.755268 0.868321
0.659315 0.749882 0.865402
0.676118 0.724046 0.838324
0.680908 0.678477 0.791823
0.684008 0.623852 0.742572
0.689908 0.571361 0.691172
0.702613 0.531540 0.633930
0.718842 0.502954 0.576697
0.731572 0.484637 0.534108
0.451391 0.682551 0.861823
0.540051 0.700050 0.874613
0.588140 0.662289 0.851626
0.611738 0.611629 0.781982
0.639547 0.542268 0.732732
0.664196 0.455286 0.711589
0.671820 0.443964 0.640424
0.691463 0.440559 0.556521
0.718463 0.435438 0.500214
0.248778 0.606477 0.847198
0.361514 0.628840 0.856086
0.465995 0.597170 0.874714
0.494399 0.526070 0.771391
0.593479 0.438190 0.715698
0.745264 0.257488 0.869545
0.653571 0.332784 0.688876
0.638454 0.356712 0.547131
0.674856 0.389134 0.482518
0.303712 0.612165 0.836185
0.409059 0.608854 0.847026
0.289691 0.326085 0.962738
0.455810 0.490050 0.753276
0.398258 0.408781 0.530168
0.622079 0.302030 0.720428
0.551750 0.290156 0.569299
0.576670 0.266266 0.496848
0.599365 0.346317 0.451521
0.404346 0.616709 0.788313
0.386880 0.584068 0.767751
0.354294 0.587742 0.717716
0.379335 0.503653 0.691098
0.346606 0.449911 0.474222
0.534775 0.534785 0.534780
0.352840 0.318723 0.321649
0.469253 0.303001 0.375596
0.511615 0.345675 0.390172
0.426183 0.613765 0.739312
0.364447 0.575256 0.711613
0.240305 0.526796 0.643795
0.254650 0.497515 0.615822
0.337966 0.444846 0.488600
0.287368 0.355278 0.315852
0.179141 0.407226 0.299683
0.396787 0.363552 0.254083
0.438906 0.362227 0.294206
0.430773 0.609555 0.702419
0.356300 0.565189 0.671275
0.232752 0.514720 0.621787
0.251793 0.496191 0.598024
0.328413 0.450947 0.493756
0.194078 0.459420 0.363704
0.160588 0.470138 0.312066
0.471568 0.368710 0.151653
0.437247 0.366566 0.219393
0.444010 0.608154 0.680188
0.394733 0.572626 0.654867
0.347209 0.535428 0.624553
0.345103 0.503450 0.583239
0.351655 0.465690 0.505111
0.312867 0.437267 0.407321
0.331443 0.404333 0.308613
0.415828 0.373185 0.224245
0.422840 0.376994 0.265649
0.665777 0.744213 0.840235
0.671233 0.732857 0.831188
0.676002 0.712704 0.811493
0.677153 0.683156 0.781869
0.677031 0.647454 0.746368
0.678222 0.610953 0.708780
0.681667 0.579338 0.671286
0.686631 0.555766 0.636523
0.691206 0.541158 0.608480
0.581289 0.709278 0.842242
0.599800 0.698880 0.835160
0.618306 0.675750 0.812867
0.627649 0.640236 0.775905
0.635694 0.596668 0.734393
0.644249 0.552293 0.695345
0.652820 0.519951 0.655503
0.662579 0.501622 0.615493
0.672613 0.494743 0.582413
0.411724 0.645224 0.839844
0.473198 0.642558 0.838784
0.526235 0.611701 0.820486
0.550481 0.573782 0.772797
0.583640 0.523168 0.722396
0.612987 0.459667 0.695700
0.621580 0.427879 0.656174
0.629363 0.422281 0.607606
0.642963 0.437613 0.563752
0.205914 0.569226 0.827541
0.332846 0.580241 0.839921
0.385088 0.476746 0.867084
0.426210 0.467290 0.801434
0.523726 0.444431 0.705710
0.603772 0.352010 0.713553
0.611288 0.256789 0.701846
0.605727 0.270368 0.649469
0.601355 0.363813 0.557360
0.015867 0.484208 0.801321
0.266256 0.522581 0.831884
0.268056 0.393554 0.901438
0.298825 0.375293 0.844474
0.405866 0.397742 0.637054
0.489881 0.317861 0.591211
0.684182 0.003039 0.855545
0.633398 0.088213 0.760248
0.547985 0.302581 0.537175
0.234727 0.543130 0.795762
0.284579 0.532917 0.803663
0.244931 0.568429 0.813765
0.197805 0.323942 0.808595
0.254531 0.301358 0.615603
0.304175 0.298811 0.355721
0.392742 0.172784 0.457699
0.464557 0.211303 0.515194
0.446546 0.305804 0.423741
0.358095 0.566748 0.756628
0.295376 0.525052 0.741503
0.191362 0.492099 0.661118
0.208448 0.424862 0.644144
0.251113 0.302968 0.605266
0.217374 0.277426 0.315099
0.258129 0.319654 0.300755
0.295168 0.285155 0.264156
0.344787 0.297135 0.273084
0.386131 0.569511 0.719435
0.306034 0.524666 0.688710
0.201805 0.493774 0.629304
0.216859 0.464536 0.612219
0.275521 0.382603 0.528801
0.211488 0.383548 0.371863
0.241313 0.330401 0.276859
0.326707 0.276792 0.157928
0.343642 0.299179 0.208796
0.410631 0.574093 0.694387
0.354484 0.536054 0.670082
0.304344 0.500335 0.638054
0.299221 0.462724 0.595944
0.300592 0.411182 0.513969
0.271776 0.373928 0.402439
0.276944 0.328029 0.284268
0.327672 0.305439 0.214000
0.354385 0.323751 0.249427
0.628760 0.711000 0.819771
0.631888 0.697734 0.809971
0.636278 0.678700 0.792307
0.639249 0.653727 0.767242
0.641633 0.624861 0.737605
0.644545 0.595648 0.706725
0.648363 0.570437 0.676768
0.652971 0.552304 0.649305
0.657746 0.542015 0.626282
0.550906 0.676500 0.820176
0.562657 0.662121 0.811179
0.577085 0.640151 0.791727
0.587413 0.611289 0.761641
0.597390 0.577858 0.726351
0.607269 0.543310 0.692370
0.616059 0.515407 0.660957
0.624407 0.500063 0.631525
0.632865 0.497172 0.605902
0.410165 0.619643 0.817999
0.454124 0.609288 0.813257
0.490462 0.581996 0.795965
0.511996 0.550621 0.759693
0.538800 0.516089 0.713893
0.563622 0.472527 0.677698
0.580346 0.433867 0.650466
0.590958 0.423016 0.621091
0.600414 0.439150 0.588926
0.138119 0.522340 0.806395
0.299540 0.542398 0.813818
0.372879 0.499917 0.814019
0.398132 0.464411 0.774620
0.457911 0.445236 0.698942
0.514090 0.388111 0.656937
0.561615 0.295082 0.666656
0.569113 0.297637 0.639143
0.562395 0.366711 0.576624
0.024503 0.484865 0.800511
0.210713 0.503436 0.811662
0.233882 0.431982 0.842027
0.191515 0.280674 0.855824
0.334971 0.360792 0.680806
0.439101 0.319194 0.606308
0.580770 0.142564 0.717595
0.561431 0.183191 0.665184
0.510406 0.309310 0.542473
0.195025 0.519211 0.793112
0.243821 0.498263 0.805817
0.172016 0.386409 0.861754
0.022004 0.038404 0.976554
0.248824 0.298931 0.637701
0.317696 0.304592 0.520605
0.405420 0.229980 0.502158
0.401161 0.233518 0.459477
0.402664 0.290768 0.421033
0.315586 0.535809 0.762529
0.246598 0.485409 0.766127
0.149048 0.416313 0.777398
0.156130 0.335036 0.741556
0.238710 0.301529 0.610352
0.230587 0.271975 0.465605
0.260599 0.263702 0.290636
0.165276 0.160442 0.169517
0.266240 0.236836 0.260460
0.350271 0.540377 0.729515
0.268173 0.492438 0.718776
0.185957 0.450150 0.705852
0.191733 0.401178 0.663145
0.183133 0.275747 0.548876
0.113381 0.175414 0.456894
0.152012 0.162664 0.184671
0.052880 0.052872 0.052571
0.220052 0.207483 0.201389
0.382152 0.548414 0.703504
0.322399 0.508130 0.686750
0.273398 0.467959 0.662680
0.256062 0.413854 0.613962
0.215231 0.311236 0.528758
0.175651 0.241366 0.445234
0.201771 0.233429 0.295701
0.205549 0.210321 0.211696
0.279369 0.270481 0.261661
0.605005 0.685806 0.801881
0.605358 0.671490 0.791834
0.607977 0.653567 0.775897
0.610934 0.632204 0.754429
0.614221 0.608781 0.729348
0.618085 0.585549 0.703269
0.622505 0.565465 0.678268
0.627384 0.551071 0.655642
0.632512 0.543218 0.636464
0.539908 0.654748 0.801146
0.544199 0.638072 0.791214
0.552467 0.617179 0.773728
0.560597 0.592823 0.748527
0.569734 0.566610 0.718619
0.579441 0.540262 0.688789
0.588636 0.518142 0.661824
0.597187 0.505306 0.637941
0.605534 0.502763 0.617497
0.440815 0.611233 0.799661
0.458076 0.593162 0.791543
0.476401 0.567601 0.774349
0.491233 0.540202 0.744877
0.511020 0.513412 0.706755
0.531763 0.483438 0.671348
0.548986 0.456080 0.644037
0.561653 0.445444 0.620141
0.572271 0.453372 0.597450
0.307774 0.559278 0.797207
0.354025 0.541587 0.793334
0.377503 0.502694 0.782923
0.393220 0.468940 0.751272
0.432405 0.450238 0.695364
0.473830 0.419376 0.647943
0.506713 0.380045 0.624463
0.523314 0.372522 0.601822
0.532107 0.398249 0.572958
0.238199 0.528738 0.792786
0.279479 0.498641 0.794422
0.260459 0.423574 0.804555
0.258013 0.367371 0.782793
0.332444 0.380592 0.686829
0.399490 0.362588 0.610662
0.451308 0.317654 0.585461
0.470269 0.313700 0.560362
0.476963 0.351405 0.527412
0.277054 0.523434 0.779486
0.233098 0.470482 0.783942
0.126758 0.397161 0.793125
0.125652 0.341823 0.784753
0.242287 0.333517 0.664657
0.296216 0.309974 0.554563
0.340632 0.286744 0.486467
0.362139 0.283281 0.443134
0.391020 0.314867 0.437166
0.303937 0.519269 0.756461
0.172329 0.460353 0.757739
0.005743 0.438253 0.756969
0.009458 0.434596 0.754819
0.137413 0.262567 0.600141
0.071699 0.129560 0.502138
0.188339 0.206469 0.393049
0.228767 0.218114 0.289117
0.294963 0.267356 0.329282
0.325893 0.521700 0.731362
0.204853 0.469510 0.731326
0.065986 0.437260 0.741815
0.074330 0.406143 0.714017
0.046135 0.128385 0.524618
0.000044 0.062788 0.501953
0.095037 0.137544 0.408762
0.174657 0.180579 0.236923
0.254885 0.246569 0.285563
0.362451 0.531227 0.707678
0.290126 0.488727 0.697641
0.224364 0.446304 0.682842
0.200026 0.377678 0.630218
0.121334 0.209717 0.531999
0.063737 0.126610 0.492057
0.149867 0.192375 0.407617
0.220945 0.235982 0.308858
0.284315 0.284070 0.323761
