site/scripts/dark-to-light.cube
TITLE "dark-plus to light-plus"
LUT_3D_SIZE 33
0.936128 0.943035 0.944476
0.941887 0.947302 0.948346
0.945937 0.950109 0.950838
0.947862 0.950992 0.951469
0.947388 0.949545 0.949800
0.944506 0.945524 0.945542
0.939511 0.938869 0.938584
0.932935 0.929683 0.928972
0.925442 0.918219 0.916919
0.917692 0.904938 0.902867
0.910196 0.890489 0.887488
0.903200 0.875525 0.871490
0.896707 0.860452 0.855333
0.890621 0.845312 0.839089
0.884890 0.829905 0.822560
0.879545 0.814029 0.805527
0.874661 0.797657 0.787952
0.870279 0.780973 0.770022
0.866372 0.764268 0.752043
0.862857 0.747790 0.734283
0.859640 0.731673 0.716889
0.856649 0.715959 0.699911
0.853841 0.700677 0.683387
0.851188 0.685913 0.667419
0.848658 0.671822 0.652181
0.846209 0.658589 0.637881
0.843784 0.646373 0.624694
0.841329 0.635268 0.612728
0.838797 0.625305 0.602018
0.836156 0.616475 0.592559
0.833387 0.608759 0.584330
0.830477 0.602140 0.577319
0.827420 0.596611 0.571519
0.940397 0.947244 0.948138
0.946977 0.952225 0.952767
0.951707 0.955676 0.955948
0.954019 0.956998 0.957057
0.953518 0.955662 0.955518
0.950172 0.951365 0.950973
0.944382 0.944079 0.943327
0.936865 0.933942 0.932649
0.928481 0.921234 0.919166
0.920072 0.906508 0.903420
0.912249 0.890638 0.886335
0.905208 0.874528 0.868914
0.898797 0.858669 0.851736
0.892782 0.842966 0.834746
0.887071 0.826986 0.817498
0.881740 0.810352 0.799580
0.876927 0.793024 0.780925
0.872699 0.775307 0.761841
0.869006 0.757641 0.742787
0.865716 0.740356 0.724115
0.862697 0.723563 0.705948
0.859867 0.707223 0.688254
0.857192 0.691304 0.671006
0.854662 0.675889 0.654303
0.852254 0.661181 0.638375
0.849917 0.647432 0.623499
0.847586 0.634841 0.609896
0.845195 0.623506 0.597673
0.842692 0.613434 0.586838
0.840046 0.604583 0.577350
0.837241 0.596912 0.569166
0.834270 0.590405 0.562273
0.831129 0.585064 0.556676
0.942995 0.950016 0.950381
0.950358 0.955629 0.955704
0.955758 0.959669 0.959536
0.958467 0.961397 0.961098
0.957932 0.960131 0.959647
0.954093 0.955516 0.954756
0.947494 0.947584 0.946373
0.939063 0.936520 0.934600
0.929883 0.922596 0.919644
0.921005 0.906449 0.902141
0.913139 0.889237 0.883342
0.906363 0.872180 0.864632
0.900275 0.855833 0.846700
0.894467 0.839865 0.829260
0.888837 0.823504 0.811503
0.883558 0.806170 0.792779
0.878872 0.787849 0.773030
0.874880 0.769054 0.752763
0.871485 0.750447 0.732668
0.868485 0.732448 0.713190
0.865701 0.715100 0.694384
0.863044 0.698230 0.676077
0.860510 0.681716 0.658151
0.858113 0.665644 0.640715
0.855839 0.650305 0.624089
0.853632 0.636043 0.608652
0.851409 0.623110 0.594676
0.849090 0.611596 0.582258
0.846618 0.601463 0.571357
0.843965 0.592623 0.561877
0.841121 0.585012 0.553754
0.838088 0.578617 0.546980
0.834864 0.573463 0.541586
0.943315 0.950917 0.950703
0.951277 0.956944 0.956515
0.957202 0.961375 0.960814
0.960215 0.963359 0.962682
0.959620 0.962080 0.961224
0.955336 0.957148 0.955957
0.948049 0.948660 0.946880
0.938891 0.936829 0.934104
0.929165 0.921884 0.917784
0.920157 0.904550 0.898656
0.912651 0.886310 0.878361
0.906512 0.868715 0.858707
0.900997 0.852308 0.840429
0.895517 0.836406 0.822889
0.890013 0.819840 0.804839
0.884824 0.801831 0.785385
0.880332 0.782468 0.764535
0.876668 0.762569 0.743095
0.873665 0.743086 0.722047
0.871021 0.724514 0.701921
0.868503 0.706764 0.682638
0.866033 0.689466 0.663827
0.863647 0.672384 0.645259
0.861397 0.655637 0.627080
0.859281 0.639641 0.609747
0.857228 0.624869 0.593771
0.855132 0.611629 0.579478
0.852896 0.599986 0.566930
0.850460 0.589831 0.556009
0.847802 0.581013 0.546554
0.844924 0.573447 0.538478
0.841833 0.567135 0.531792
0.838532 0.562141 0.526572
0.940774 0.949603 0.948633
0.948993 0.955690 0.954576
0.955127 0.960157 0.958981
0.958224 0.962112 0.960861
0.957522 0.960700 0.959250
0.952949 0.955529 0.953641
0.945270 0.946707 0.944026
0.935748 0.934411 0.930470
0.925901 0.918845 0.913088
0.917250 0.900856 0.892757
0.910595 0.882235 0.871507
0.905473 0.864744 0.851479
0.900752 0.848761 0.833330
0.895695 0.833192 0.816008
0.890357 0.816503 0.797841
0.885302 0.797798 0.777735
0.881082 0.777360 0.755832
0.877850 0.756397 0.733308
0.875332 0.736171 0.711466
0.873107 0.717206 0.690882
0.870891 0.699211 0.671282
0.868629 0.681567 0.652054
0.866411 0.663923 0.632862
0.864337 0.646465 0.613929
0.862413 0.629784 0.595893
0.860545 0.614509 0.579417
0.858600 0.600998 0.564868
0.856464 0.589261 0.552247
0.854076 0.579096 0.541329
0.851422 0.570279 0.531880
0.848520 0.562705 0.523798
0.845386 0.556413 0.517136
0.842025 0.551518 0.512032
0.934946 0.945950 0.943839
0.942964 0.951689 0.949454
0.948888 0.955779 0.953505
0.951782 0.957379 0.955028
0.950929 0.955715 0.953098
0.946285 0.950419 0.947203
0.938602 0.941524 0.937247
0.929209 0.929141 0.923215
0.919825 0.913533 0.905264
0.912151 0.895739 0.884459
0.906875 0.877715 0.863088
0.903111 0.861132 0.843392
0.899348 0.846005 0.825818
0.894772 0.830871 0.808947
0.889627 0.814009 0.790796
0.884747 0.794567 0.770164
0.880872 0.773109 0.747372
0.878163 0.751245 0.723975
0.876217 0.730494 0.701563
0.874480 0.711337 0.680706
0.872616 0.693221 0.660905
0.870603 0.675274 0.641313
0.868596 0.657051 0.621516
0.866741 0.638849 0.601849
0.865049 0.621468 0.583154
0.863403 0.605702 0.566243
0.861639 0.591941 0.551501
0.859626 0.580118 0.538836
0.857304 0.569913 0.527904
0.854675 0.561029 0.518398
0.851771 0.553356 0.510221
0.848618 0.546983 0.503488
0.845223 0.542100 0.498416
0.925665 0.940116 0.936204
0.932974 0.945168 0.941006
0.938244 0.948559 0.944242
0.940655 0.949570 0.945057
0.939611 0.947564 0.942637
0.935093 0.942200 0.936468
0.927810 0.933424 0.926346
0.919137 0.921336 0.912220
0.910949 0.906377 0.894355
0.904984 0.889793 0.873959
0.901646 0.873479 0.853370
0.899542 0.858615 0.834683
0.896811 0.844644 0.818061
0.892672 0.829868 0.801823
0.887665 0.812681 0.783829
0.882954 0.792508 0.762880
0.879472 0.770253 0.739503
0.877363 0.747837 0.715564
0.876072 0.726888 0.692845
0.874902 0.707747 0.671867
0.873466 0.689597 0.651934
0.871770 0.671355 0.632026
0.870033 0.652541 0.611696
0.868443 0.633590 0.591400
0.867023 0.615522 0.572163
0.865632 0.599279 0.554915
0.864077 0.585262 0.540027
0.862214 0.573308 0.527304
0.859988 0.562981 0.516292
0.857414 0.553918 0.506629
0.854540 0.546019 0.498244
0.851402 0.539443 0.491333
0.848008 0.534457 0.486200
0.913082 0.932509 0.925854
0.919185 0.936678 0.929391
0.923349 0.939208 0.931374
0.924976 0.939522 0.931145
0.923673 0.937119 0.928065
0.919485 0.931695 0.921653
0.913081 0.923175 0.911631
0.905836 0.911747 0.897925
0.899649 0.898083 0.880863
0.896142 0.883590 0.861672
0.895292 0.869873 0.842568
0.895085 0.857303 0.825392
0.893309 0.844598 0.810014
0.889391 0.830008 0.794552
0.884357 0.812377 0.776846
0.879776 0.791643 0.755822
0.876747 0.769065 0.732225
0.875339 0.746684 0.708125
0.874814 0.726013 0.685371
0.874319 0.707151 0.664416
0.873404 0.689055 0.644443
0.872093 0.670533 0.624350
0.870664 0.651142 0.603687
0.869362 0.631483 0.583000
0.868224 0.612769 0.563427
0.867100 0.596055 0.545961
0.865776 0.581734 0.530949
0.864094 0.569551 0.518110
0.861999 0.558972 0.506914
0.859520 0.549587 0.496980
0.856716 0.541322 0.488283
0.853633 0.534409 0.481103
0.850278 0.529193 0.475823
0.897702 0.923673 0.913185
0.902225 0.926931 0.915129
0.904925 0.928612 0.915535
0.905509 0.928257 0.914007
0.903906 0.925473 0.910181
0.900304 0.920014 0.903681
0.895293 0.911860 0.894151
0.890103 0.901347 0.881420
0.886497 0.889357 0.865773
0.885877 0.877351 0.848353
0.887749 0.866492 0.831162
0.889427 0.856255 0.815737
0.888410 0.844703 0.801660
0.884517 0.830219 0.786934
0.879409 0.812292 0.769502
0.875088 0.791491 0.748527
0.872745 0.769389 0.724983
0.872291 0.747919 0.701046
0.872742 0.728224 0.678538
0.873060 0.710045 0.657834
0.872726 0.692165 0.638067
0.871795 0.673412 0.618106
0.870628 0.653490 0.597492
0.869551 0.633189 0.576784
0.868648 0.613879 0.557149
0.867768 0.596687 0.539596
0.866679 0.581983 0.524457
0.865204 0.569441 0.511419
0.863279 0.558460 0.499938
0.860937 0.548611 0.489650
0.858245 0.539850 0.480585
0.855254 0.532472 0.473092
0.851970 0.526886 0.467610
0.880278 0.914133 0.898789
0.883144 0.916593 0.899080
0.884349 0.917581 0.897896
0.883911 0.916717 0.895108
0.882093 0.913662 0.890636
0.879239 0.908218 0.884234
0.875830 0.900464 0.875469
0.872837 0.890897 0.864036
0.871753 0.880535 0.850147
0.873684 0.870734 0.834822
0.877742 0.862163 0.819730
0.880874 0.853658 0.805976
0.880544 0.843006 0.792907
0.876951 0.828838 0.778582
0.872270 0.811208 0.761179
0.868836 0.791254 0.740152
0.867842 0.770767 0.716717
0.868921 0.751382 0.693137
0.870731 0.733620 0.671185
0.871999 0.716708 0.651151
0.872173 0.699288 0.632092
0.871424 0.680364 0.612810
0.870290 0.659935 0.592773
0.869243 0.639043 0.572481
0.868439 0.619189 0.553069
0.867736 0.601523 0.535549
0.866866 0.586377 0.520278
0.865614 0.573371 0.506988
0.863890 0.561871 0.495180
0.861715 0.551446 0.484542
0.859161 0.542083 0.475144
0.856281 0.534124 0.467372
0.853083 0.528019 0.461681
0.861494 0.904265 0.883194
0.862899 0.906075 0.882023
0.862917 0.906550 0.879550
0.861777 0.905347 0.875831
0.859911 0.902141 0.870939
0.857740 0.896766 0.864704
0.855666 0.889391 0.856689
0.854421 0.880628 0.846551
0.855142 0.871507 0.834463
0.858568 0.863139 0.821272
0.863659 0.855786 0.808180
0.867583 0.848121 0.795767
0.868127 0.838118 0.783236
0.865676 0.824692 0.768860
0.862574 0.808253 0.751121
0.861283 0.790328 0.729774
0.862859 0.772808 0.706306
0.866455 0.756839 0.683163
0.870165 0.742078 0.662145
0.872425 0.727068 0.643401
0.872777 0.710335 0.625762
0.871728 0.691241 0.607815
0.870171 0.670280 0.588880
0.868819 0.648841 0.569364
0.867918 0.628548 0.550383
0.867300 0.610514 0.532986
0.866624 0.594983 0.517617
0.865595 0.581514 0.504111
0.864075 0.569456 0.492062
0.862064 0.558394 0.481209
0.859630 0.548348 0.471634
0.856838 0.539691 0.463706
0.853704 0.532900 0.457859
0.841656 0.894284 0.866613
0.841787 0.895538 0.864170
0.840888 0.895584 0.860687
0.839296 0.894111 0.856320
0.837471 0.890818 0.851181
0.835821 0.885568 0.845132
0.834688 0.878568 0.837792
0.834591 0.870435 0.828857
0.836279 0.862084 0.818448
0.840136 0.854344 0.807172
0.845242 0.847263 0.795739
0.849448 0.839728 0.784271
0.851142 0.830183 0.771906
0.850809 0.817883 0.757164
0.850699 0.803473 0.738826
0.853156 0.788698 0.716936
0.858844 0.775361 0.693313
0.866102 0.763910 0.670738
0.872189 0.752923 0.651103
0.875259 0.740193 0.634290
0.875214 0.724230 0.618697
0.873200 0.704940 0.602548
0.870682 0.683479 0.584970
0.868698 0.661679 0.566332
0.867559 0.641267 0.547811
0.866995 0.623220 0.530573
0.866511 0.607596 0.515200
0.865691 0.593841 0.501658
0.864325 0.581291 0.489623
0.862397 0.569572 0.478851
0.859987 0.558757 0.469382
0.857186 0.549262 0.461516
0.854032 0.541595 0.455636
0.820762 0.884349 0.848997
0.819571 0.885101 0.845266
0.817686 0.884750 0.840762
0.815557 0.883028 0.835745
0.813691 0.879681 0.830395
0.812476 0.874599 0.824624
0.812146 0.867963 0.818079
0.812933 0.860296 0.810411
0.815171 0.852335 0.801587
0.818973 0.844686 0.791930
0.823696 0.837358 0.781763
0.828030 0.829598 0.770923
0.831109 0.820412 0.758557
0.833612 0.809461 0.743406
0.837629 0.797613 0.724520
0.845166 0.786674 0.702218
0.856149 0.778122 0.678681
0.867740 0.771491 0.657042
0.876258 0.764277 0.639192
0.879786 0.753727 0.624598
0.878860 0.738529 0.611141
0.875473 0.719203 0.596677
0.871782 0.697608 0.580180
0.869176 0.676031 0.562088
0.867951 0.656239 0.543781
0.867609 0.638924 0.526649
0.867401 0.623804 0.511440
0.866748 0.610133 0.498209
0.865393 0.597237 0.486632
0.863342 0.584843 0.476396
0.860736 0.573141 0.467431
0.857724 0.562635 0.459926
0.854385 0.553885 0.454195
0.798870 0.874643 0.830365
0.796163 0.874981 0.825197
0.793024 0.874313 0.819480
0.790078 0.872412 0.813647
0.787990 0.869065 0.808047
0.787192 0.864162 0.802689
0.787742 0.857818 0.797171
0.789488 0.850431 0.790939
0.792317 0.842578 0.783676
0.796139 0.834739 0.775410
0.800623 0.826985 0.766217
0.805237 0.818926 0.755837
0.809866 0.810089 0.743516
0.815496 0.800551 0.728229
0.824068 0.791368 0.709281
0.837051 0.784234 0.687241
0.853355 0.780061 0.664532
0.868929 0.777454 0.644372
0.879450 0.773181 0.628403
0.883247 0.764369 0.615658
0.881567 0.750036 0.603658
0.877187 0.731233 0.590031
0.872907 0.710401 0.573706
0.870390 0.690190 0.555342
0.869767 0.672253 0.536712
0.870133 0.656793 0.519551
0.870391 0.643010 0.504761
0.869816 0.629898 0.492351
0.868186 0.616817 0.481839
0.865644 0.603697 0.472710
0.862474 0.590953 0.464708
0.858937 0.579251 0.457893
0.855170 0.569237 0.452522
0.776344 0.865331 0.811029
0.772050 0.865390 0.804383
0.767553 0.864546 0.797404
0.763668 0.862593 0.790716
0.761253 0.859316 0.784868
0.760805 0.854568 0.779973
0.762219 0.848393 0.775540
0.764966 0.841091 0.770751
0.768530 0.833144 0.764959
0.772651 0.824985 0.757911
0.777248 0.816794 0.749542
0.782398 0.808490 0.739622
0.788616 0.800015 0.727589
0.797170 0.791774 0.712691
0.809799 0.784892 0.694498
0.827298 0.780762 0.673742
0.847627 0.779655 0.652774
0.865995 0.779553 0.634465
0.877989 0.777049 0.620020
0.882338 0.769518 0.608210
0.880821 0.756339 0.596443
0.876769 0.738960 0.582287
0.873425 0.720221 0.564782
0.872509 0.702923 0.545026
0.873715 0.688346 0.525424
0.875526 0.675953 0.508154
0.876459 0.664302 0.494160
0.875763 0.652144 0.483191
0.873430 0.638980 0.474398
0.869895 0.625069 0.466930
0.865700 0.611160 0.460290
0.861270 0.598154 0.454418
0.856813 0.586812 0.449562
0.753696 0.856469 0.791465
0.747988 0.856372 0.783515
0.742342 0.855476 0.775493
0.737698 0.853566 0.768153
0.734999 0.850395 0.762149
0.734761 0.845765 0.757633
0.736785 0.839661 0.754062
0.740326 0.832322 0.750449
0.744610 0.824183 0.745895
0.749236 0.815682 0.739913
0.754259 0.807115 0.732339
0.760141 0.798641 0.723025
0.767798 0.790490 0.711636
0.778626 0.783243 0.697719
0.794052 0.777936 0.681091
0.814239 0.775558 0.662488
0.836627 0.775881 0.643855
0.856423 0.776733 0.627387
0.869583 0.774995 0.613831
0.875184 0.768459 0.601877
0.875289 0.756851 0.588997
0.873523 0.741924 0.572855
0.873268 0.726718 0.552820
0.875887 0.713845 0.530726
0.880259 0.703854 0.509816
0.884128 0.695298 0.492643
0.885768 0.686160 0.479947
0.884636 0.675113 0.470972
0.881140 0.661919 0.464352
0.876147 0.647240 0.458832
0.870544 0.632217 0.453676
0.864957 0.618019 0.448749
0.859649 0.605513 0.444370
0.731259 0.848006 0.772001
0.724384 0.847806 0.762989
0.717882 0.846886 0.754211
0.712728 0.845021 0.746462
0.709833 0.841935 0.740387
0.709666 0.837398 0.736119
0.712008 0.831349 0.733117
0.716080 0.823978 0.730360
0.721007 0.815681 0.726821
0.726278 0.806913 0.721840
0.731960 0.798070 0.715152
0.738667 0.789481 0.706675
0.747469 0.781544 0.696285
0.759698 0.774877 0.683796
0.776417 0.770318 0.669205
0.797362 0.768464 0.653122
0.819989 0.768839 0.636908
0.840118 0.769494 0.621985
0.854362 0.767864 0.608664
0.862083 0.762237 0.595634
0.865433 0.752685 0.580537
0.868047 0.741172 0.561327
0.872974 0.730649 0.538011
0.880669 0.723089 0.513422
0.888919 0.718026 0.491580
0.894897 0.713206 0.475074
0.896998 0.706373 0.464106
0.895143 0.696360 0.457298
0.890249 0.683243 0.452784
0.883646 0.668049 0.448956
0.876587 0.652272 0.444886
0.869896 0.637322 0.440460
0.863848 0.624133 0.436186
0.709092 0.839866 0.752715
0.701142 0.839554 0.742744
0.693861 0.838573 0.733295
0.688230 0.836698 0.725179
0.685114 0.833655 0.719007
0.684946 0.829208 0.714903
0.687527 0.823262 0.712357
0.692111 0.815950 0.710373
0.697778 0.807613 0.707850
0.703905 0.798706 0.703978
0.710467 0.789694 0.698384
0.718049 0.781018 0.691006
0.727678 0.773150 0.681876
0.740509 0.766662 0.671012
0.757288 0.762165 0.658521
0.777582 0.759967 0.644825
0.799248 0.759546 0.630719
0.819046 0.759369 0.616922
0.834417 0.757539 0.603336
0.845041 0.752900 0.588656
0.853006 0.745852 0.570801
0.861560 0.738387 0.548279
0.872835 0.732971 0.522015
0.885957 0.730561 0.495806
0.897742 0.729691 0.474006
0.905298 0.727733 0.458747
0.907536 0.722615 0.449531
0.904934 0.713486 0.444459
0.898853 0.700681 0.441319
0.891009 0.685471 0.438251
0.882975 0.669611 0.434238
0.875722 0.654681 0.429329
0.869441 0.641588 0.424403
0.687237 0.832030 0.733657
0.678128 0.831593 0.722666
0.669915 0.830524 0.712423
0.663625 0.828609 0.703784
0.660156 0.825597 0.697400
0.659976 0.821259 0.693439
0.662925 0.815472 0.691438
0.668247 0.808304 0.690389
0.674934 0.800035 0.689089
0.682206 0.791100 0.686568
0.689870 0.782002 0.682324
0.698373 0.773240 0.676276
0.708599 0.765308 0.668549
0.721501 0.758700 0.659297
0.737622 0.753841 0.648684
0.756575 0.750867 0.636966
0.776791 0.749328 0.624488
0.796032 0.748152 0.611422
0.812622 0.746104 0.597331
0.826586 0.742583 0.580945
0.839782 0.738233 0.560589
0.854650 0.734815 0.535535
0.871983 0.733978 0.507634
0.889613 0.735597 0.481209
0.903908 0.737579 0.460348
0.912406 0.737395 0.446466
0.914673 0.733389 0.438491
0.911658 0.725036 0.434210
0.905037 0.712843 0.431197
0.896824 0.698236 0.427421
0.888836 0.683141 0.421903
0.882059 0.669198 0.415102
0.876425 0.657143 0.408531
0.666004 0.824533 0.715116
0.655676 0.823996 0.703056
0.646411 0.822863 0.691915
0.639322 0.820937 0.682633
0.635407 0.817985 0.675957
0.635230 0.813779 0.672152
0.638667 0.808172 0.670793
0.644917 0.801177 0.670828
0.652834 0.793022 0.670922
0.661443 0.784117 0.669933
0.670344 0.774976 0.667217
0.679794 0.766122 0.662635
0.690496 0.758039 0.656346
0.703232 0.751147 0.648580
0.718459 0.745749 0.639532
0.735960 0.741903 0.629338
0.754755 0.739290 0.618043
0.773500 0.737248 0.605459
0.791307 0.735106 0.590935
0.808479 0.732718 0.573315
0.826476 0.730822 0.551421
0.846695 0.730744 0.525283
0.868618 0.733247 0.497339
0.889259 0.737408 0.471841
0.905077 0.740956 0.452236
0.914190 0.741701 0.439330
0.916691 0.738394 0.431732
0.913856 0.730768 0.427052
0.907624 0.719477 0.422671
0.900270 0.706087 0.416434
0.893730 0.692625 0.407624
0.888767 0.680635 0.397476
0.884802 0.670495 0.388431
0.645971 0.817397 0.697622
0.634565 0.816808 0.684621
0.624374 0.815664 0.672696
0.616591 0.813776 0.662862
0.612299 0.810917 0.655951
0.612137 0.806853 0.652303
0.616016 0.801415 0.651533
0.623109 0.794583 0.652565
0.632170 0.786549 0.653974
0.642055 0.777703 0.654479
0.652154 0.768551 0.653294
0.662511 0.759612 0.650185
0.673637 0.751347 0.645286
0.686180 0.744126 0.638851
0.700579 0.738181 0.631084
0.716828 0.733559 0.622055
0.734456 0.730077 0.611648
0.752815 0.727397 0.599485
0.771602 0.725258 0.584853
0.791255 0.723804 0.566792
0.812747 0.723720 0.544608
0.836511 0.725844 0.518865
0.861134 0.730249 0.492118
0.883390 0.735621 0.468102
0.900105 0.739807 0.449570
0.909854 0.740967 0.436951
0.913028 0.738146 0.428735
0.911146 0.731281 0.422388
0.906425 0.721200 0.415076
0.901359 0.709621 0.404646
0.897783 0.698576 0.391017
0.895884 0.689295 0.376630
0.894347 0.681623 0.364961
0.627700 0.810585 0.681702
0.615530 0.809974 0.668043
0.604746 0.808847 0.655627
0.596560 0.807017 0.645492
0.592070 0.804254 0.638488
0.591924 0.800318 0.634977
0.596065 0.795030 0.634611
0.603699 0.788357 0.636354
0.613572 0.780467 0.638781
0.624452 0.771723 0.640542
0.635554 0.762609 0.640731
0.646708 0.753624 0.638994
0.658231 0.745206 0.635387
0.670650 0.737689 0.630139
0.684409 0.731281 0.623448
0.699687 0.726046 0.615357
0.716397 0.721919 0.605692
0.734370 0.718784 0.594030
0.753659 0.716635 0.579714
0.774701 0.715744 0.562022
0.798014 0.716655 0.540640
0.823361 0.719802 0.516373
0.848945 0.724858 0.491522
0.871731 0.730441 0.469112
0.888987 0.734652 0.451272
0.899568 0.735941 0.438212
0.904006 0.733558 0.428380
0.904014 0.727617 0.419118
0.902066 0.719143 0.407461
0.900712 0.709962 0.391588
0.901312 0.701909 0.372538
0.903146 0.695670 0.354157
0.904173 0.690521 0.340617
0.611483 0.804017 0.667638
0.598874 0.803377 0.653613
0.587812 0.802250 0.640985
0.579486 0.800450 0.630769
0.574943 0.797751 0.623781
0.574800 0.793918 0.620366
0.579026 0.788777 0.620218
0.586906 0.782286 0.622385
0.597251 0.774590 0.625515
0.608813 0.766018 0.628253
0.620682 0.757017 0.629605
0.632498 0.748056 0.629090
0.644393 0.739553 0.626659
0.656775 0.731822 0.622479
0.670081 0.725066 0.616730
0.684623 0.719379 0.609453
0.700563 0.714782 0.600487
0.718022 0.711294 0.589455
0.737226 0.709033 0.575828
0.758529 0.708290 0.559113
0.782112 0.709446 0.539238
0.807395 0.712662 0.517022
0.832593 0.717451 0.494324
0.855100 0.722560 0.473433
0.872644 0.726394 0.455915
0.884291 0.727667 0.441793
0.890642 0.725802 0.429494
0.893539 0.721081 0.416332
0.895545 0.714674 0.399516
0.898912 0.708338 0.378037
0.904122 0.703453 0.354337
0.909497 0.700059 0.333323
0.912613 0.697029 0.319152
0.597350 0.797618 0.655464
0.584502 0.796919 0.641256
0.573318 0.795750 0.628549
0.564946 0.793934 0.618326
0.560380 0.791259 0.611362
0.560212 0.787510 0.607994
0.564440 0.782523 0.607962
0.572427 0.776249 0.610405
0.583062 0.768805 0.614055
0.595104 0.760478 0.617575
0.607561 0.751668 0.619911
0.619919 0.742814 0.620471
0.632152 0.734310 0.619096
0.644556 0.726460 0.615883
0.657542 0.719471 0.610984
0.671494 0.713465 0.604456
0.686715 0.708518 0.596187
0.703473 0.704717 0.585893
0.722050 0.702222 0.573194
0.742701 0.701280 0.557789
0.765404 0.702134 0.539731
0.789486 0.704789 0.519719
0.813401 0.708749 0.499133
0.835068 0.712977 0.479586
0.852702 0.716207 0.462116
0.865596 0.717422 0.446543
0.874403 0.716231 0.431315
0.880952 0.713040 0.413940
0.887576 0.709021 0.392223
0.895819 0.705617 0.366297
0.905148 0.703591 0.339764
0.913246 0.702442 0.317811
0.917763 0.700926 0.303989
0.585263 0.791355 0.645150
0.572267 0.790570 0.630837
0.560986 0.789326 0.618069
0.552541 0.787463 0.607806
0.547907 0.784790 0.600813
0.547686 0.781115 0.597449
0.551908 0.776286 0.597506
0.559990 0.770249 0.600189
0.570860 0.763092 0.604286
0.583280 0.755055 0.608471
0.596196 0.746497 0.611646
0.608984 0.737819 0.613136
0.621494 0.729392 0.612689
0.633926 0.721513 0.610337
0.646653 0.714393 0.606209
0.660079 0.708172 0.600383
0.674572 0.702955 0.592807
0.690455 0.698858 0.583304
0.708010 0.696033 0.571634
0.727410 0.694670 0.557632
0.748546 0.694910 0.541402
0.770800 0.696684 0.523474
0.792956 0.699562 0.504792
0.813468 0.702749 0.486390
0.831042 0.705303 0.468843
0.845227 0.706488 0.451786
0.856696 0.706091 0.433782
0.867067 0.704564 0.412794
0.878120 0.702902 0.387507
0.890503 0.702070 0.359103
0.902894 0.702248 0.331683
0.912793 0.702642 0.310029
0.918184 0.702094 0.296941
0.575297 0.785232 0.636759
0.562246 0.784351 0.622422
0.550906 0.783026 0.609620
0.542385 0.781111 0.599305
0.537668 0.778436 0.592259
0.537382 0.774830 0.588878
0.541596 0.770153 0.589003
0.549748 0.764345 0.591885
0.560784 0.757470 0.596339
0.573455 0.749736 0.601046
0.586668 0.741459 0.604883
0.599729 0.733004 0.607118
0.612399 0.724718 0.607437
0.624800 0.716886 0.605819
0.637255 0.709718 0.602370
0.650158 0.703364 0.597187
0.663889 0.697941 0.590279
0.678777 0.693565 0.581562
0.695083 0.690368 0.570909
0.712931 0.688486 0.558250
0.732200 0.687991 0.543689
0.752397 0.688797 0.527592
0.772646 0.690568 0.510547
0.791880 0.692735 0.493138
0.809252 0.694649 0.475579
0.824550 0.695832 0.457392
0.838400 0.696206 0.437372
0.852046 0.696184 0.414091
0.866573 0.696468 0.387093
0.881854 0.697546 0.358186
0.896166 0.699194 0.331329
0.907148 0.700534 0.310598
0.913131 0.700570 0.298219
0.567643 0.779257 0.630461
0.554726 0.778287 0.616266
0.543488 0.776889 0.603568
0.535014 0.774930 0.593303
0.530292 0.772257 0.586262
0.529963 0.768712 0.582868
0.534114 0.764165 0.582997
0.542208 0.758557 0.585938
0.553209 0.751941 0.590544
0.565883 0.744498 0.595523
0.579131 0.736511 0.599753
0.592223 0.728311 0.602482
0.604861 0.720216 0.603352
0.617100 0.712492 0.602300
0.629210 0.705346 0.599411
0.641550 0.698926 0.594791
0.654480 0.693351 0.588495
0.668313 0.688729 0.580514
0.683283 0.685167 0.570802
0.699494 0.682759 0.559345
0.716855 0.681542 0.546231
0.735020 0.681437 0.531689
0.753405 0.682206 0.516043
0.771336 0.683468 0.499561
0.788323 0.684813 0.482223
0.804323 0.685962 0.463538
0.819848 0.686922 0.442603
0.835715 0.687999 0.418582
0.852385 0.689600 0.391642
