site/scripts/dark-to-light.cube
TITLE "dark-plus to light-plus"
LUT_3D_SIZE 5
0.936128 0.943035 0.944476
0.925442 0.918219 0.916919
0.874661 0.797657 0.787952
0.848658 0.671822 0.652181
0.827420 0.596611 0.571519
0.897702 0.923673 0.913185
0.886497 0.889357 0.865773
0.872745 0.769389 0.724983
0.868648 0.613879 0.557149
0.851970 0.526886 0.467610
0.731259 0.848006 0.772001
0.721007 0.815681 0.726821
0.819989 0.768839 0.636908
0.888919 0.718026 0.491580
0.863848 0.624133 0.436186
0.585263 0.791355 0.645150
0.570860 0.763092 0.604286
0.674572 0.702955 0.592807
0.831042 0.705303 0.468843
0.918184 0.702094 0.296941
0.566506 0.745485 0.633087
0.557719 0.718979 0.599052
0.618422 0.671049 0.588343
0.691460 0.645426 0.522121
0.771691 0.646715 0.429871
0.904374 0.921625 0.935473
0.895750 0.888844 0.900256
0.862680 0.746778 0.750155
0.856003 0.583395 0.570186
0.838742 0.501058 0.480607
0.818980 0.883661 0.917465
0.776578 0.798600 0.806083
0.938290 0.604340 0.579110
0.920027 0.305482 0.246691
0.904471 0.145522 0.075328
0.638165 0.827148 0.723248
0.498066 0.732538 0.537931
0.663242 0.669036 0.541530
0.886622 0.653122 0.418646
0.905151 0.451582 0.343172
0.393144 0.781513 0.486338
0.272318 0.768221 0.358361
0.488645 0.608710 0.472701
0.773134 0.645299 0.420531
0.988988 0.732578 0.187100
0.458604 0.727067 0.561814
0.429339 0.696829 0.515615
0.526107 0.607527 0.543276
0.596175 0.571311 0.473297
0.725643 0.600622 0.379610
0.775309 0.829211 0.886756
0.781742 0.799532 0.855640
0.768023 0.706293 0.759942
0.774879 0.593014 0.628073
0.781735 0.518041 0.532593
0.547263 0.748441 0.894063
0.658539 0.715885 0.889593
0.738065 0.550131 0.795548
0.760073 0.476205 0.549602
0.845558 0.377389 0.368440
0.503708 0.694004 0.828757
0.503239 0.655497 0.806087
0.461325 0.482009 0.488619
0.611714 0.255299 0.293152
0.722755 0.358335 0.359576
0.478633 0.671876 0.700630
0.387787 0.605511 0.666565
0.367778 0.545084 0.488038
0.523191 0.480093 0.357778
0.539992 0.412839 0.341769
0.470045 0.650667 0.652219
0.415547 0.588483 0.605457
0.413961 0.513560 0.512957
0.402231 0.451155 0.378254
0.480377 0.434550 0.339802
0.665777 0.744213 0.840235
0.676002 0.712704 0.811493
0.677031 0.647454 0.746368
0.681667 0.579338 0.671286
0.691206 0.541158 0.608480
0.411724 0.645224 0.839844
0.526235 0.611701 0.820486
0.583640 0.523168 0.722396
0.621580 0.427879 0.656174
0.642963 0.437613 0.563752
0.015867 0.484208 0.801321
0.268056 0.393554 0.901438
0.405866 0.397742 0.637054
0.684182 0.003039 0.855545
0.547985 0.302581 0.537175
0.358095 0.566748 0.756628
0.191362 0.492099 0.661118
0.251113 0.302968 0.605266
0.258129 0.319654 0.300755
0.344787 0.297135 0.273084
0.410631 0.574093 0.694387
0.304344 0.500335 0.638054
0.300592 0.411182 0.513969
0.276944 0.328029 0.284268
0.354385 0.323751 0.249427
0.605005 0.685806 0.801881
0.607977 0.653567 0.775897
0.614221 0.608781 0.729348
0.622505 0.565465 0.678268
0.632512 0.543218 0.636464
0.440815 0.611233 0.799661
0.476401 0.567601 0.774349
0.511020 0.513412 0.706755
0.548986 0.456080 0.644037
0.572271 0.453372 0.597450
0.238199 0.528738 0.792786
0.260459 0.423574 0.804555
0.332444 0.380592 0.686829
0.451308 0.317654 0.585461
0.476963 0.351405 0.527412
0.303937 0.519269 0.756461
0.005743 0.438253 0.756969
0.137413 0.262567 0.600141
0.188339 0.206469 0.393049
0.294963 0.267356 0.329282
0.362451 0.531227 0.707678
0.224364 0.446304 0.682842
0.121334 0.209717 0.531999
0.149867 0.192375 0.407617
0.284315 0.284070 0.323761
